X: 30320
T: Old Man's Delight
R: jig
M: 6/8
K: Amajor
|:f|"A"ecA A2c|"E"BGE E2 f|"A"ecA Ace|"D"fba "E"gfg|
"A"aec ABc|"E"BGE E2E|"D"FGA "E"BGE|"A"ABA A2:|
|:e|"A"cAc ece|"D"fdf "E"e2 f|"A"ecA ABc|"E"BGE E2 B|
"A"cAc ece|"D"fdf "E"e2 a/f/|"A"ecA "E"EFG|"A"ABA A2:|

